bundle/image/components/watch/img/1.svg

<svg width="37" height="37" viewBox="0 0 37 37" fill="none" xmlns="http://www.w3.org/2000/svg">
<path d="M0.639964 14.42C2.70996 4.74996 12.27 -1.43004 21.94 0.639964C24.75 1.23996 27.3 2.45997 29.51 4.26997L28.17 5.90995C26.22 4.31995 23.98 3.24997 21.5 2.70997C12.97 0.879971 4.53998 6.32997 2.71998 14.86C0.889981 23.39 6.33998 31.82 14.87 33.64C23.4 35.46 31.83 30.02 33.65 21.49C34.1 19.4 34.12 17.29 33.73 15.21L35.81 14.81C36.26 17.17 36.23 19.57 35.73 21.93C33.66 31.6 24.1 37.78 14.43 35.71C4.75997 33.64 -1.42003 24.08 0.649974 14.41L0.639964 14.42Z" fill="white"/>
</svg>

<svg width="37" height="37" fill="none" xmlns="http://www.w3.org/2000/svg"><path d="M.64 14.42C2.71 4.75 12.27-1.43 21.94.64c2.81.6 5.36 1.82 7.57 3.63l-1.34 1.64a15.734 15.734 0 0 0-6.67-3.2C12.97.88 4.54 6.33 2.72 14.86.89 23.39 6.34 31.82 14.87 33.64c8.53 1.82 16.96-3.62 18.78-12.15.45-2.09.47-4.2.08-6.28l2.08-.4c.45 2.36.42 4.76-.08 7.12-2.07 9.67-11.63 15.85-21.3 13.78C4.76 33.64-1.42 24.08.65 14.41l-.01.01z" fill="#fff"/></svg>
